X:1
T: Kininvie House
C:William Marshall
R:Strathspey
Q: 128
K:C
M:4/4
L:1/16
|:E3G ((3G2A2B2) cE3 D4|E3G ((3G2A2B2) cG3 c3e|fefg agfe dD3 F3D|E3G ((3G2A2B2) cG3 c2G2|
E3G ((3G2A2B2) cE3 D4|E3G ((3G2A2B2) cG3 c3e|fefg agfe dD3 F3D|E3G ((3G2A2B2) cG3 c2e2|
g3a g3e dD3 D2ef|g3a ge3 c3g ec3|fefg agfe dD3 D3F|EG3 G2AB c3G c2e2|
g3a g3e dD3 D2ef|g3a ge3 c3g ec3|fefg agfe dD3 D3F|1E3G F3A Gf3 e2g2:|2E3G B3d c4 c4||
